X: 113106
Q: "Reel."
M: C
L: 1/8
K: D
|: uA |\
d2fd (fa)fd | ceed ceef |\
d2fd (fa)fd | cbac d2-d :|\
uB |\
dAFG ABcd | Bbac d2(dB) |\
dfeg fagb | afge d2-d |]\
{D}"_Fin."D4 ||



